X: 1
T:The Road to Lisdoonvarna
M:6/8
L:1/8
Q:80
C:arr. Kent Hiestand
S:Jig
K:HP
|: A|
{g}B2f{e}f2e|
{g}f2g{ag}a3|
{g}c2e{g}efe|  !
{g}A2B{g}cBA|
{g}B2f{e}f2e|
{g}f2g{ag}a2f|  !
gag{a}f2e|
{g}f2B{G}B2:| |:
{g}e2fgfe|  !
{g}d2B{g}Bcd|
{g}c2A{g}ABc|
{g}d2B{G}B3|  !
{g}e2fgfe|
{g}d2B{g}Bcd|
{g}cdc{g}B2A|  !
{g}B3{GBGe}B3:|
